32x32/apps/konqueror.svg

<svg xmlns="http://www.w3.org/2000/svg" width="32" height="32" version="1">
 <path style="opacity:0.2" d="m 7.9008277,2.8056402 c -0.063553,0.00651 -0.1245359,0.035392 -0.1722672,0.083399 L 5.5205354,5.0970644 C 5.4276637,5.1902022 5.4096833,5.3342947 5.4781522,5.4470671 L 8.0635236,9.7072562 C 7.6048402,10.478387 7.2379855,11.308899 6.9752343,12.185987 l -4.7482792,0.988484 c -0.1320974,0.02734 -0.2269549,0.144717 -0.2269549,0.280276 v 3.12268 c 0,0.132093 0.090103,0.246774 0.2173845,0.277541 l 4.6088247,1.126572 c 0.245739,1.015812 0.6260093,1.977846 1.1293055,2.862913 l -2.6674032,4.067413 c -0.074417,0.113674 -0.059233,0.263821 0.036914,0.359574 l 2.2093921,2.209392 c 0.092873,0.09262 0.2367552,0.110536 0.3500027,0.04238 L 12.065313,24.98433 c 0.821033,0.473784 1.705598,0.846383 2.641427,1.099227 l 0.974812,4.68949 C 15.708992,30.90591 15.82714,31 15.961827,31 h 3.124048 c 0.131321,0 0.246198,-0.08992 0.277542,-0.218752 l 1.148445,-4.697693 c 0.964668,-0.260339 1.876961,-0.649028 2.717991,-1.144344 l 4.119368,2.700216 c 0.113256,0.07456 0.262069,0.0606 0.358205,-0.03555 l 2.209392,-2.209392 c 0.09344,-0.0934 0.109668,-0.237518 0.04101,-0.350003 l -2.810957,-3.560185 c -1.262134,-1.731214 -1.10604,-1.554765 -1.566809,-2.046695 L 13.941109,7.2066513 12.30594,5.6179668 c -0.267643,0.093629 -0.160746,0.034223 -0.03418,-0.023242 L 8.0881337,2.8507578 C 8.0313563,2.8136085 7.9657322,2.7991023 7.9021948,2.8056404 Z m 4.3709323,2.7890842 0.03144,0.020508 c 0.0015,0.00133 0.0024,0.00238 0.0027,0.00274 0.274557,-0.1495576 0.107216,-0.087442 -0.03418,-0.023242 z"/>
 <path id="path5692_2_-3" style="fill:#8e8e8e" d="m 7.9008277,1.8056402 c -0.063553,0.00651 -0.1245359,0.035392 -0.1722672,0.083399 L 5.5205354,4.0970644 C 5.4276637,4.1902022 5.4096833,4.3342947 5.4781522,4.4470671 L 8.0635236,8.7072562 C 7.6048402,9.4783871 7.2379855,10.308899 6.9752343,11.185987 l -4.7482792,0.988484 c -0.1320974,0.02734 -0.2269549,0.144717 -0.2269549,0.280276 v 3.12268 c 0,0.132093 0.090103,0.246774 0.2173845,0.277541 l 4.6088247,1.126572 c 0.245739,1.015812 0.6260093,1.977846 1.1293055,2.862913 l -2.6674032,4.067413 c -0.074417,0.113674 -0.059233,0.263821 0.036914,0.359574 l 2.2093921,2.209392 c 0.092873,0.09262 0.2367552,0.110536 0.3500027,0.04238 L 12.065313,23.98433 c 0.821033,0.473784 1.705598,0.846383 2.641427,1.099227 l 0.974812,4.68949 C 15.708992,29.90591 15.82714,30 15.961827,30 h 3.124048 c 0.131321,0 0.246198,-0.08992 0.277542,-0.218752 l 1.148445,-4.697693 c 0.964668,-0.260339 1.876961,-0.649028 2.717991,-1.144344 l 4.119368,2.700216 c 0.113256,0.07456 0.262069,0.0606 0.358205,-0.03555 l 2.209392,-2.209392 c 0.09344,-0.0934 0.109668,-0.237518 0.04101,-0.350003 l -2.810957,-3.560185 c -1.262134,-1.731214 -1.10604,-1.554765 -1.566809,-2.046695 L 13.941109,6.2066513 12.30594,4.6179668 c -0.267643,0.093629 -0.160746,0.034223 -0.03418,-0.023242 L 8.0881337,1.8507578 C 8.0313563,1.8136085 7.9657322,1.7991023 7.9021948,1.8056404 Z m 4.3709323,2.7890842 0.03144,0.020508 c 0.0015,0.00133 0.0024,0.00238 0.0027,0.00274 0.274557,-0.1495576 0.107216,-0.087442 -0.03418,-0.023242 z"/>
 <ellipse id="ellipse836" style="opacity:0.1" cx="18.5" cy="14.5" rx="9.5" ry="9.5"/>
 <path style="fill:#f4f4f7;opacity:0.1" d="M 7.9003906 1.8046875 C 7.8368376 1.8111975 7.7762469 1.8406649 7.7285156 1.8886719 L 5.5214844 4.0976562 C 5.4286127 4.1907941 5.4100467 4.3344932 5.4785156 4.4472656 L 5.7402344 4.8789062 L 7.7285156 2.8886719 C 7.7762469 2.8406649 7.8368376 2.8111975 7.9003906 2.8046875 L 7.9023438 2.8046875 C 7.9658811 2.7981494 8.0311132 2.8144132 8.0878906 2.8515625 L 12.271484 5.59375 C 12.144918 5.651215 12.038998 5.7108165 12.306641 5.6171875 C 12.306341 5.6168275 12.304234 5.6165644 12.302734 5.6152344 L 12.273438 5.5957031 C 12.414389 5.531838 12.579872 5.468352 12.306641 5.6171875 L 13.941406 7.2070312 L 25.580078 19.4375 C 26.040847 19.92943 25.88435 19.753161 27.146484 21.484375 L 29.652344 24.658203 L 29.916016 24.394531 C 30.009456 24.301131 30.025689 24.157407 29.957031 24.044922 L 27.146484 20.484375 C 25.88435 18.753161 26.040847 18.92943 25.580078 18.4375 L 13.941406 6.2070312 L 12.306641 4.6171875 C 12.038998 4.7108165 12.144918 4.651215 12.271484 4.59375 L 8.0878906 1.8515625 C 8.0311132 1.8144132 7.9658811 1.7981494 7.9023438 1.8046875 L 7.9003906 1.8046875 z M 12.306641 4.6171875 C 12.579872 4.468352 12.414389 4.531838 12.273438 4.5957031 L 12.302734 4.6152344 C 12.304234 4.6165644 12.306341 4.6168275 12.306641 4.6171875 z M 7.7851562 9.2480469 C 7.4625024 9.8654782 7.1780928 10.5063 6.9746094 11.185547 L 2.2265625 12.173828 C 2.0944651 12.201168 2 12.319519 2 12.455078 L 2 13.455078 C 2 13.319519 2.0944651 13.201168 2.2265625 13.173828 L 6.9746094 12.185547 C 7.2373606 11.308459 7.6057697 10.478162 8.0644531 9.7070312 L 7.7851562 9.2480469 z M 7.6640625 20.287109 L 5.2890625 23.912109 C 5.2146455 24.025783 5.2280717 24.175731 5.3242188 24.271484 L 5.5566406 24.503906 L 7.9550781 20.84375 C 7.851685 20.661929 7.7569719 20.475226 7.6640625 20.287109 z"/>
 <ellipse id="ellipse8" style="fill:#365ee6" cx="18.5" cy="13.5" rx="9.5" ry="9.5"/>
 <path style="opacity:0.1" class="ColorScheme-Text" d="m 18.404771,8.0006734 a 6.5009819,6.5001532 0 0 1 4.691628,1.9043428 6.5009819,6.5001532 0 0 1 0,9.1916228 6.5009819,6.5001532 0 0 1 -9.192797,0 6.5009819,6.5001532 0 0 1 0,-9.1916228 6.5009819,6.5001532 0 0 1 4.501169,-1.9043428 z m 0.177761,0.8125202 a 5.6883593,5.6876351 0 0 0 -3.80282,1.3933424 l 1.141163,1.141019 a 4.0628547,6.5005679 45.008322 0 1 4.407527,-2.2280808 5.6883593,5.6876351 0 0 0 -1.74587,-0.3062806 z m 2.460088,1.0616698 a 3.2502838,5.687997 45.007184 0 0 -4.545608,2.0487546 l 2.002989,2.002734 3.698068,-3.697599 A 3.2502838,5.687997 45.007184 0 0 21.04262,9.8748634 Z m -6.842219,0.9013886 a 5.6883593,5.6876351 0 0 0 -1.085614,5.533699 4.0628547,6.5005679 45.008322 0 1 2.234712,-4.384747 z m 8.573804,0.02539 -3.699654,3.699185 2.004574,2.004319 a 3.2502838,5.687997 45.007184 0 0 1.69508,-5.703506 z m -6.85333,1.694864 a 3.2502838,5.687997 45.007184 0 0 -1.69508,5.703502 l 3.699656,-3.699183 z m 7.964339,0.195194 a 4.0628547,6.5005679 45.008322 0 1 -2.234715,4.384748 L 22.7996,18.2254 a 5.6883593,5.6876351 0 0 0 1.085614,-5.5337 z m -5.385213,2.3836 -3.698068,3.697598 a 3.2502838,5.687997 45.007184 0 0 5.701055,-1.694865 z m 2.579124,2.578797 a 4.0628547,6.5005679 45.008322 0 1 -4.407525,2.228081 5.6883593,5.6876351 0 0 0 5.548689,-1.087062 z"/>
 <path style="fill:#fafafa" class="ColorScheme-Text" d="m 18.404771,7.0006734 a 6.5009819,6.5001532 0 0 1 4.691628,1.9043428 6.5009819,6.5001532 0 0 1 0,9.1916228 6.5009819,6.5001532 0 0 1 -9.192797,0 6.5009819,6.5001532 0 0 1 0,-9.1916228 6.5009819,6.5001532 0 0 1 4.501169,-1.9043428 z m 0.177761,0.8125202 a 5.6883593,5.6876351 0 0 0 -3.80282,1.3933426 l 1.141163,1.1410188 a 4.0628547,6.5005679 45.008322 0 1 4.407527,-2.2280808 5.6883593,5.6876351 0 0 0 -1.74587,-0.3062806 z m 2.460088,1.0616698 a 3.2502838,5.687997 45.007184 0 0 -4.545608,2.0487546 l 2.002989,2.002734 3.698068,-3.6975988 A 3.2502838,5.687997 45.007184 0 0 21.04262,8.8748634 Z M 14.200401,9.776252 a 5.6883593,5.6876351 0 0 0 -1.085614,5.533699 4.0628547,6.5005679 45.008322 0 1 2.234712,-4.384747 z m 8.573804,0.02539 -3.699654,3.699185 2.004574,2.004319 a 3.2502838,5.687997 45.007184 0 0 1.69508,-5.703506 z m -6.85333,1.694864 a 3.2502838,5.687997 45.007184 0 0 -1.69508,5.703502 l 3.699656,-3.699183 z m 7.964339,0.195194 a 4.0628547,6.5005679 45.008322 0 1 -2.234715,4.384748 L 22.7996,17.2254 a 5.6883593,5.6876351 0 0 0 1.085614,-5.5337 z m -5.385213,2.3836 -3.698068,3.697598 a 3.2502838,5.687997 45.007184 0 0 5.701055,-1.694865 z m 2.579124,2.578797 a 4.0628547,6.5005679 45.008322 0 1 -4.407525,2.228081 5.6883593,5.6876351 0 0 0 5.548689,-1.087062 z"/>
 <path id="ellipse842" style="opacity:0.1;fill:#f4f4f7" d="M 18.5 4 A 9.5 9.500001 0 0 0 9 13.5 A 9.5 9.500001 0 0 0 9.0195312 14.085938 A 9.5 9.500001 0 0 1 18.5 5 A 9.5 9.500001 0 0 1 27.980469 13.914062 A 9.5 9.500001 0 0 0 28 13.5 A 9.5 9.500001 0 0 0 18.5 4 z"/>
</svg>

<svg xmlns="http://www.w3.org/2000/svg" width="32" height="32" version="1"><path style="opacity:.2" d="M7.9 2.806a.284.284 0 0 0-.171.083L5.52 5.097a.285.285 0 0 0-.043.35l2.586 4.26a11.045 11.045 0 0 0-1.089 2.479l-4.748.988a.286.286 0 0 0-.227.28v3.123c0 .133.09.247.217.278l4.61 1.127a11.032 11.032 0 0 0 1.129 2.862l-2.668 4.068a.286.286 0 0 0 .037.36l2.21 2.209c.092.092.236.11.35.042l4.18-2.539c.821.474 1.706.847 2.642 1.1l.975 4.689a.286.286 0 0 0 .28.227h3.124c.131 0 .246-.09.277-.219l1.149-4.697c.965-.26 1.877-.65 2.718-1.145l4.12 2.7c.112.075.261.061.357-.035l2.21-2.21a.284.284 0 0 0 .04-.35l-2.81-3.56c-1.262-1.73-1.106-1.554-1.567-2.046L13.941 7.207l-1.635-1.589c-.268.094-.16.034-.034-.023L8.088 2.85a.285.285 0 0 0-.186-.045zm4.372 2.789.031.02a.026.026 0 0 1 .003.003c.274-.15.107-.087-.034-.023z"/><path style="fill:#8e8e8e" d="M7.9 1.806a.284.284 0 0 0-.171.083L5.52 4.097a.285.285 0 0 0-.043.35l2.586 4.26a11.045 11.045 0 0 0-1.089 2.479l-4.748.988a.286.286 0 0 0-.227.28v3.123c0 .133.09.247.217.278l4.61 1.127a11.032 11.032 0 0 0 1.129 2.862l-2.668 4.068a.286.286 0 0 0 .037.36l2.21 2.209c.092.092.236.11.35.042l4.18-2.539c.821.474 1.706.847 2.642 1.1l.975 4.689a.286.286 0 0 0 .28.227h3.124c.131 0 .246-.09.277-.219l1.149-4.697c.965-.26 1.877-.65 2.718-1.145l4.12 2.7c.112.075.261.061.357-.035l2.21-2.21a.284.284 0 0 0 .04-.35l-2.81-3.56c-1.262-1.73-1.106-1.554-1.567-2.046L13.941 6.207l-1.635-1.589c-.268.094-.16.034-.034-.023L8.088 1.85a.285.285 0 0 0-.186-.045zm4.372 2.789.031.02a.026.026 0 0 1 .003.003c.274-.15.107-.087-.034-.023z"/><circle style="opacity:.1" cx="18.5" cy="14.5" r="9.5"/><path style="fill:#f4f4f7;opacity:.1" d="M7.9 1.805a.284.284 0 0 0-.171.084L5.52 4.098a.285.285 0 0 0-.042.35l.261.43 1.989-1.99a.284.284 0 0 1 .171-.083h.002a.286.286 0 0 1 .186.047l4.183 2.742c-.126.057-.232.117.036.023 0 0-.003 0-.004-.002l-.03-.02c.141-.063.307-.127.034.022l1.634 1.59 11.64 12.23c.46.492.303.316 1.565 2.047l2.506 3.174.264-.263a.284.284 0 0 0 .041-.35l-2.81-3.56c-1.263-1.732-1.106-1.556-1.567-2.047L13.941 6.207l-1.634-1.59c-.268.094-.162.034-.036-.023L8.088 1.852a.286.286 0 0 0-.186-.047H7.9zm4.407 2.812c.273-.149.107-.085-.034-.021l.03.02.004.001zM7.785 9.248a11.014 11.014 0 0 0-.81 1.938l-4.748.988a.287.287 0 0 0-.227.281v1c0-.135.094-.254.227-.281l4.748-.988c.262-.878.63-1.708 1.09-2.479l-.28-.459zm-.12 11.04-2.376 3.624a.286.286 0 0 0 .035.36l.233.232 2.398-3.66a10.775 10.775 0 0 1-.29-.557z"/><circle style="fill:#365ee6" cx="18.5" cy="13.5" r="9.5"/><path style="opacity:.1" class="ColorScheme-Text" d="M18.405 8a6.501 6.5 0 0 1 4.691 1.905 6.501 6.5 0 0 1 0 9.192 6.501 6.5 0 0 1-9.192 0 6.501 6.5 0 0 1 0-9.192 6.501 6.5 0 0 1 4.5-1.904zm.178.813a5.688 5.688 0 0 0-3.803 1.394l1.14 1.14a4.063 6.5 45.008 0 1 4.408-2.228 5.688 5.688 0 0 0-1.745-.306zm2.46 1.062a3.25 5.688 45.007 0 0-4.546 2.049l2.003 2.002 3.698-3.697a3.25 5.688 45.007 0 0-1.155-.354zm-6.843.901a5.688 5.688 0 0 0-1.085 5.534 4.063 6.5 45.008 0 1 2.234-4.385zm8.574.026-3.7 3.699 2.005 2.004a3.25 5.688 45.007 0 0 1.695-5.703zm-6.853 1.695a3.25 5.688 45.007 0 0-1.695 5.703l3.7-3.7zm7.964.195a4.063 6.5 45.008 0 1-2.235 4.384l1.15 1.15a5.688 5.688 0 0 0 1.085-5.534zM18.5 15.075l-3.698 3.698a3.25 5.688 45.007 0 0 5.701-1.695zm2.58 2.58a4.063 6.5 45.008 0 1-4.408 2.227 5.688 5.688 0 0 0 5.548-1.087z"/><path style="fill:#fafafa" class="ColorScheme-Text" d="M18.405 7a6.501 6.5 0 0 1 4.691 1.905 6.501 6.5 0 0 1 0 9.192 6.501 6.5 0 0 1-9.192 0 6.501 6.5 0 0 1 0-9.192 6.501 6.5 0 0 1 4.5-1.904zm.178.813a5.688 5.688 0 0 0-3.803 1.394l1.14 1.14a4.063 6.5 45.008 0 1 4.408-2.228 5.688 5.688 0 0 0-1.745-.306zm2.46 1.062a3.25 5.688 45.007 0 0-4.546 2.049l2.003 2.002 3.698-3.697a3.25 5.688 45.007 0 0-1.155-.354zm-6.843.901a5.688 5.688 0 0 0-1.085 5.534 4.063 6.5 45.008 0 1 2.234-4.385zm8.574.026-3.7 3.699 2.005 2.004a3.25 5.688 45.007 0 0 1.695-5.703zm-6.853 1.695a3.25 5.688 45.007 0 0-1.695 5.703l3.7-3.7zm7.964.195a4.063 6.5 45.008 0 1-2.235 4.384l1.15 1.15a5.688 5.688 0 0 0 1.085-5.534zM18.5 14.075l-3.698 3.698a3.25 5.688 45.007 0 0 5.701-1.695zm2.58 2.58a4.063 6.5 45.008 0 1-4.408 2.227 5.688 5.688 0 0 0 5.548-1.087z"/><path style="opacity:.1;fill:#f4f4f7" d="M18.5 4A9.5 9.5 0 0 0 9 13.5a9.5 9.5 0 0 0 .02.586A9.5 9.5 0 0 1 18.5 5a9.5 9.5 0 0 1 9.48 8.914A9.5 9.5 0 0 0 28 13.5 9.5 9.5 0 0 0 18.5 4z"/></svg>
